X:1
T:The Midnight Cry
T:The Midnight Cry
T:John Robson Sweney
T:Frances Jane (Fanny) Crosby, 1882
T:Public Domain Courtesy of the Cyber Hymnal™
T:Public Domain Courtesy of the Cyber Hymnal™
C:John Robson Sweney
Z:Public Domain
Z:Courtesy of the Cyber Hymnal™
%%score ( 1 2 ) ( 3 4 )
L:1/8
Q:1/4=97
M:4/4
K:F
V:1 treble 
V:2 treble 
V:3 bass 
V:4 bass 
V:1
 [Ac]>[GB] | [FA]2 [Ec]>[EB] [EG]2 [EA]>[EG] | [DF]2 [DF]>[B,D] [A,C]3 C | %3
w: 1.~Slum- ber|not, slum- ber not, For the|time flies a- pace— The|
w: 2.~Slum- ber|not, slum- ber not, Tho’ He|tar- ry a- while, Not|
w: 3.~Slum- ber|not, slum- ber not, For the|mo- ments are brief; O|
 [CF]2 [CF]>[FA] [Ac]2 [Fc]>[FA] | [EG]6 [Ec]>[GB] | [FA]2 [Ec]>[EB] [EG]2 [EA]>[EG] | %6
w: time for the Bride- groom is|near; Let us|watch, let us wait, With a|
w: long will He lin- ger a-|way; He has|left His com- mands To the|
w: think of their an- guish of|heart Who will|come, but too late, To the|
 [DF]2 [DF]>[B,D] [A,C]3 C | [CF]2 [FA]>[Fd] [Fc]2 [EG]>[EA] | F6 [FA]>[FA] | %9
w: firm, trust- ing heart, Be|rea- dy the sum- mons to|hear. O pro-|
w: faith- ful and wise, Then|let us in meek- ness o-|bey. Yes, the|
w: door of the feast, And|hear from the Bride- groom, “De-|part.” Let our|
 [FG]2 [FG]>[FG] [Fd]2 [Fd]>[Ge] | ([Fd][Ec])[Ec][CE] [EG]3 [EG] | %11
w: vide for our lamps, Let your|ves- * sels be filled With|
w: Bride- groom will come To His|long * wait- ing bride, And|
w: lamps be well filled And their|lus- * ter be seen When|
 [DG]2 [=B,D]>[CE] [DF]2 [G=B]>[FA] | ([EG]4 [CE]2) [EG]>[EG] | [FG]2 [FG]>[FG] [Fd]2 [Fd]>[Ge] | %14
w: grace He will free- ly sup-|ply; * Then, with|rap- ture com- plete, Our be-|
w: wipe ev- ery tear from her|eye; * “Go ye|forth” may we hear, And with|
w: He to the mar- riage draws|nigh, * Then our|souls will re- joice At the|
 ([Fd][Ec])[Ec][CE] [EG]3 [EG] | [FA]2 [Fd]>[Fc] [Ec]2 [D=B]>[FB] | [Ec]6 ||"^Refrain" [Ec]>[GB] | %18
w: lovèd * we shall meet, When|mid- night shall e- cho the|cry.||
w: joy, * not with fear, When|mid- night shall e- cho the|cry.|Slum- ber|
w: sound * of His voice, When|mid- night shall e- cho the|cry.||
 [FA]2 [Ec]>[EB] [EG]2 [EA]>[EG] | [DF]2 [DF]>[B,D] [A,C]3 C | [CF]2 [CF]>[FA] [Ac]2 [Fc]>[FA] | %21
w: |||
w: not, slum- ber not, For the|time flies a- pace— The|time for the Bride- groom is|
w: |||
 [EG]6 [Ec]>[GB] | [FA]2 [Ac]>[GB] [EG]2 [EA]>[EG] | [DF]2 [DF]>[B,D] [A,C]3 C | %24
w: |||
w: near; Let us|watch, let us wait, With a|firm, trust- ing heart, Be|
w: |||
 [CF]2 [FA]>[Fd] [Fc]2 [EG]>[EA] | F6 |] %26
w: ||
w: rea- dy the sum- mons to|hear.|
w: ||
V:2
 x2 | x8 | x7 C | x8 | x8 | x8 | x7 C | x8 | F6 x2 | x8 | x8 | x8 | x8 | x8 | x8 | x8 | x6 || x2 | %18
 x8 | x7 C | x8 | x8 | x8 | x7 C | x8 | F6 |] %26
V:3
 [F,C]>[F,C] | [F,C]2 [C,C]>[C,G,] [C,C]2 [C,C]>[C,B,] | [D,A,]2 [B,,B,]>[B,,F,] F,3 [F,A,] | %3
 [F,A,]2 [F,A,]>[F,C] [F,C]2 [A,C]>[F,C] | [C,C]6 [C,G,]>[C,C] | %5
 [F,C]2 [C,C]>[C,G,] [C,C]2 [C,C]>[C,B,] | [D,A,]2 [B,,B,]>[B,,F,] F,3 [F,A,] | %7
 [F,A,]2 [F,C]>[B,,B,] [C,A,]2 [C,B,]>[C,C] | [F,A,]6 [F,C]>[F,C] | %9
 [G,=B,]2 [G,B,]>[G,B,] [G,B,]2 [G,B,]>[G,B,] | [C,C]2 [C,G,][C,G,] [C,C]3 [C,C] | %11
 [G,,=B,]2 [G,,G,]>[G,,G,] [G,,G,]2 [G,,G,]>[G,,B,] | (C4 G,2) [C,C]>[C,C] | %13
 [G,=B,]2 [G,B,]>[G,B,] [G,B,]2 [G,B,]>[G,B,] | [C,C]2 [C,G,][C,G,] [C,C]3 [C,C] | %15
 [F,C]2 [F,A,]>[F,_A,] G,2 [G,,G,]>[G,,G,] | [C,G,]6 || [C,G,]>[C,C] | %18
 [F,C]2 [C,C]>[C,G,] [C,C]2 [C,C]>[C,B,] | [D,A,]2 [B,,B,]>[B,,F,] F,3 [F,A,] | %20
 [F,A,]2 [F,A,]>[F,C] [F,C]2 [A,C]>[F,C] | [C,C]6 [C,G,]>[C,C] | %22
 [F,C]2 [F,C]>[F,C] [C,C]2 [C,C]>[C,B,] | [D,A,]2 [B,,B,]>[B,,F,] F,3 [F,A,] | %24
 [F,A,]2 [F,C]>[B,,B,] [C,A,]2 [C,B,]>[C,C] | [F,A,]6 |] %26
V:4
 x2 | x8 | x4 F,3 x | x8 | x8 | x8 | x4 F,3 x | x8 | x8 | x8 | x8 | x8 | C,6 x2 | x8 | x8 | %15
 x4 G,2 x2 | x6 || x2 | x8 | x4 F,3 x | x8 | x8 | x8 | x4 F,3 x | x8 | x6 |] %26

